X:1
T:Där borta
T:Wilhelm Stenhammar (1871-1927)
T:Text: Verner v Heidenstam
T:Sverige
T:©PA Aglert Edition may be freely distributed, duplicated, performed and recorded
T:©PA Aglert Edition may be freely distributed, duplicated, performed and recorded
T:©PA Aglert Edition may be freely distributed, duplicated, performed and recorded
T:©PA Aglert Edition may be freely distributed, duplicated, performed and recorded
C:Ludvig Norman (1831-1885)
Z:©PA Aglert
Z:Edition may be freely distributed, duplicated, performed and recorded
%%score [ 1 2 ( 3 4 ) ( 5 6 ) ]
L:1/8
Q:1/4=75
M:4/4
K:Ab
V:1 treble nm="S"
V:2 treble nm="A"
V:3 treble-8 nm="T"
V:4 treble-8 
V:5 bass nm="B"
V:6 bass 
V:1
"^Stilla"!pp!!<(! c4-!<)! !>!cc !fermata!c2 |!p!!<(! c4-!<)! !>!cc !fermata!c2 | %2
w: Sve- * ri- ge,|Sve- * ri- ge,|
!mp!!<(! c4-!<)! !>!cc c2 |!mf! !>!e3 d F4 | z2 z!p! F B2 c2 | E2 z"^cresc." E !>!A2 c2 | %6
w: Sve- * ri- ge,|fos- ter- land,|vår läng- tans|bygd, vårt hem på|
"^dim."!>(! e4 c2!>)! z2 |!p! E2 FG AEEA |!<(! BBB!<)!G!f! c2 z c |"^dim." !>!f3 f!p! e2 A2 | %10
w: jor- den!|Nu spe- la skäl- lor- na, där|hä- rar lysts av brand, och|dåd blev sa- ga,|
 ddde c4 |!<(! B2 cd!<)! e3!<(! A!<)! |!f! d3!mf! F G2 A2 | B3 c A2 !fermata!A2 | %14
w: men med hand vid hand|svär än ditt folk som|förr de gam- la|tro- hets- or- den.|
!p! c4"^molto" cAEE | FFdB c4 |!<(! f4!<)!!>(! f!>)!edc | cBAB c2 c2 |!mf! c2- c/d/c e2 d2 | %19
w: Fall ju- le- snö och|su- sa dju- pa mo!|Brinn ös- ter- stjär- na|ge- nom ju- ni- kväl- len!|Sve- * ri- ge, mo- der!|
"^cresc." eeeA!<(! f3!<)!!f! e |!<(! a4-!<)! afed | cBdc A4 | z!p! ABc d3 B"^più" | %23
w: Bliv vår strid, vår ro, du|land, * där vå- ra|barn en gång få bo|och vå- ra fä- der|
!p! c4 F2!pp! FA | B3 c A2 !fermata!A2 |] %25
w: so- va un- der|kyr- ko- häl- len.|
V:2
!pp!!<(! [A,A]4-!<)! !>![A,A][A,A] !fermata![A,A]2 | %1
w: Sve- * ri- ge,|
!p!!<(! [A,A]4-!<)! !>![A,A][A,A] !fermata![A,A]2 |!mp!!<(! [A,A]4-!<)! !>![A,A][A,A] [A,A]2 | %3
w: Sve- * ri- ge,|Sve- * ri- ge,|
!mf! !>![A,F]3 [A,F] [A,D]4 | z2 z!p! [A,D] [G,D]2 [G,E]2 | [A,C]2 z"^cresc." [A,C] !>![A,E]2 A2 | %6
w: fos- ter- land,|vår läng- tans|bygd, vårt hem på|
"^dim."!>(! G4 A2!>)! z2 | z!p! EEE ECCC |!<(! FFE!<)!E!f! =E2 z c |"^dim." !>!F3 G!p! A2 F2 | %10
w: jor- den!|Nu spe- la skäl- lor- na, där|hä- rar lysts av brand, och|dåd blev sa- ga,|
 FFEE E4 |!<(! E2 EE!<)! E3!<(! F!<)! |!f! F3!mf! D E2 E2 | D3 E C2 !fermata!C2 | %14
w: men med hand vid hand|svär än ditt folk som|förr de gam- la|tro- hets- or- den.|
!p! [CE]4"^molto" [CE][CE][A,C][A,C] | DD[DF][DE] [CE]4 |!<(! [CF]4!<)!!>)!!>(! [EG][EG][EF][EF] | %17
w: Fall ju- le- snö och|su- sa dju- pa mo!|Brinn ös- ter- stjär- na|
 [=DF][DF][_D_F][DF] [CE]2 [CE]2 |!mf! [FA]2- [FA]/[FA]/[FA] [Fc]2 [FB]2 | %19
w: ge- nom ju- ni- kväl- len!|Sve- * ri- ge, mo- der!|
"^cresc." [Bd][Bd][Ac][_GA]!<(! ([FA]2 =G2!<)! |!f! E3)!<(! =E!<)!!>(! F!>)!AGF | EDF=E F4 | %22
w: Bliv vår strid, vår ro, *|* du land, där vå- ra|barn en gång få bo|
 z!p! FFF F3 E"^più" |!p! E4 C2!pp! DE | D3 E C2 !fermata!C2 |] %25
w: och vå- ra fä- der|so- va un- der|kyr- ko- häl- len.|
V:3
!pp!!<(! c4-!<)! !>!cc !fermata!c2 |!p!!<(! c4-!<)! !>!cc !fermata!c2 |!mp!!<(! c4-!<)! !>!cc c2 | %3
w: Sve- * ri- ge,|Sve- * ri- ge,|Sve- * ri- ge,|
!mf! !>!e3 d F4 | z2 z!p! F B2 c2 | E2 z"^cresc." E !>!A2 c2 |"^dim."!>(! e4 c2!>)! z2 | %7
w: fos- ter- land,|vår läng- tans|bygd, vårt hem på|jor- den!|
!p! e2 =d_d cAAA |!<(! AAG!<)!B!f! G2 z c |"^dim." !>!A3 B!p! c2 c2 | BBBB A4 | %11
w: Nu spe- la skäl- lor- na, där|hä- rar lysts av brand, och|dåd blev sa- ga,|men med hand vid hand|
!<(! G2 AB!<)! c3!<(! c!<)! |!f! B3!mf! B B2 A2 | G3 G E2 !fermata!E2 | %14
w: svär än ditt folk som|förr de gam- la|tro- hets- or- den.|
!p! [EA]4"^molto" [EA][EA][Ac][Ac] | [FA][FA][FA]G [EA]4 | %16
w: Fall ju- le- snö och|su- sa dju- pa mo!|
!<(! [Ac]4!<)!!>(! [Ge]!>)![Ge][=Ae][Ae] | [!courtesy!_A=d][Ad][A_d][Ad] [Ac]2 [Ac]2 | %18
w: Brinn ös- ter- stjär- na|ge- nom ju- ni- kväl- len!|
!mf! c2- c/d/c [ce]2 [Bd]2 |"^cresc." eeeA!<(!!<(! f3!<)!!f! e!<)! | %20
w: Sve- * ri- ge, mo- der!|Bliv vår strid, vår ro, du|
!f!!<(! a4-!<)!!<)!!<(!!>(! a!>)!AAA | GGFA c4 | z!p! FGA B3 G"^più" |!p! G4 A2!pp! AA | %24
w: land, * där vå- ra|barn en gång få bo|och vå- ra fä- der|so- va un- der|
 G3 G E2 !fermata!E2 |] %25
w: kyr- ko- häl- len.|
V:4
 x8 | x8 | x8 | x8 | x8 | x8 | x8 | x8 | x8 | x8 | x8 | x8 | x8 | x8 | x8 | x8 | x8 | x8 | x8 | %19
w: |||||||||||||||||||
w: |||||||||||||||||||
 ddcc (d2 B2 | A3) A AAAA | x8 | x8 | x8 | x8 |] %25
w: ||||||
w: * * * * ro, *|* du land, * * *|||||
V:5
!pp!!<(! [A,,E,]4-!<)! !>![A,,E,][A,,E,] !fermata![A,,E,]2 | %1
w: Sve- * ri- ge,|
!p!!<(! [A,,=E,]4-!<)! !>![A,,E,][A,,E,] !fermata![A,,E,]2 | %2
w: Sve- * ri- ge,|
!mp!!<(! [A,,F,]4-!<)! !>![A,,F,][A,,F,] [A,,F,]2!mf! | !>![A,,F,]3 [A,,F,] [A,,F,]4 | %4
w: Sve- * ri- ge,|fos- ter- land,|
 z2 z!p! [A,,F,] [A,,E,]2 [A,,E,]2 | [A,,E,]2 z"^cresc." [A,,E,] !>![C,E,]2 [A,,A,]2 | %6
w: vår läng- tans|bygd, vårt hem på|
"^dim."!>(! [E,B,]4!>)! [A,C]2 z2 | z4 z2 z!p! F, |!<(! D,D,E,!<)!E,!f! C,2 z C, | %9
w: jor- den!|där|hä- rar lysts av brand, och|
"^dim." !>!D,3 D,!p! C,2 F,2 | B,B,G,G, A,4 |!<(! E,2 =D,_D,!<)! C,3!<(! F,!<)! | %12
w: dåd blev sa- ga,|men med hand vid hand|svär än ditt folk som|
!f! B,,3!mf! B,, D,2 C,2 | E,3 E, A,,2 !fermata!A,,2 |!p! A,,6"^molto" A,,2 | A,,3 A,, A,,4 | %16
w: förr de gam- la|tro- hets- or- den.|Fall snö|su- sa mo!|
!<(! A,,4!<)!!>(! C,!>)!C,F,F, | [B,,F,][B,,F,]D,D, [A,,E,]2 [A,,E,]2 | %18
w: Brinn ös- ter- stjär- na|ge- nom ju- ni- kväl- len!|
!mf! [F,A,]2- [F,A,]/[F,A,]/[F,A,] [B,,F,]2 [B,,F,]2 |"^cresc." B,B,CC!<(! (A,2 B,2!<)! | %20
w: Sve- * ri- ge, mo- der!|Bliv vår strid, vår ro, *|
!f! A,3)!<(!!>(! C,!<)!!>)! D,D,D,D, | E,E,B,,C, F,4 | z!p! F,F,F, B,,3 E,"^più" | %23
w: * du land, där vå- ra|barn en gång få bo|och vå- ra fä- der|
!p! C,4 F,2!pp! D,C, | E,3 E, A,,2 !fermata!A,,2 |] %25
w: so- va un- der|kyr- ko- häl- len.|
V:6
 x8 | x8 | x8 | x8 | x8 | x8 | x8 | x8 | x8 | x8 | x8 | x8 | x8 | x8 | x8 | x8 | x8 | x8 | x8 | %19
 _G,G,A,A, (D,4 | C,3) C, D,D,D,D, | x8 | x8 | x8 | x8 |] %25

